packages/icon/icons/error_outline.svg

<!-- Generated by IcoMoon.io -->
<svg version="1.1" xmlns="http://www.w3.org/2000/svg" width="768" height="768" viewBox="0 0 768 768">
<title></title>
<g id="icomoon-ignore">
</g>
<path d="M384 640.5q105 0 180.75-75.75t75.75-180.75-75.75-180.75-180.75-75.75-180.75 75.75-75.75 180.75 75.75 180.75 180.75 75.75zM384 64.5q132 0 225.75 93.75t93.75 225.75-93.75 225.75-225.75 93.75-225.75-93.75-93.75-225.75 93.75-225.75 225.75-93.75zM352.5 223.5h63v192h-63v-192zM352.5 480h63v64.5h-63v-64.5z"></path>
</svg>

<svg xmlns="http://www.w3.org/2000/svg" width="768" height="768"><path d="M384 640.5q105 0 180.75-75.75T640.5 384t-75.75-180.75T384 127.5t-180.75 75.75T127.5 384t75.75 180.75T384 640.5zm0-576q132 0 225.75 93.75T703.5 384t-93.75 225.75T384 703.5t-225.75-93.75T64.5 384t93.75-225.75T384 64.5zm-31.5 159h63v192h-63v-192zm0 256.5h63v64.5h-63V480z"/></svg>
